svgs/sharp-light/franc-sign.svg

<svg xmlns="http://www.w3.org/2000/svg" viewBox="0 0 320 512"><!--! Font Awesome Pro 6.6.0 by @fontawesome - https://fontawesome.com License - https://fontawesome.com/license (Commercial License) Copyright 2024 Fonticons, Inc. --><path d="M80 32L64 32l0 16 0 144 0 32 0 96L0 320l0 32 64 0 0 112 0 16 32 0 0-16 0-112 128 0 0-32L96 320l0-96 192 0 0-32L96 192 96 64l208 0 16 0 0-32-16 0L80 32z"/></svg>

<svg xmlns="http://www.w3.org/2000/svg" viewBox="0 0 320 512"><!--! Font Awesome Pro 6.4.2 by @fontawesome - https://fontawesome.com License - https://fontawesome.com/license (Commercial License) Copyright 2023 Fonticons, Inc. --><path d="M80 32H64V48 192v32 96H0v32H64V464v16H96V464 352H224V320H96V224H288V192H96V64H304h16V32H304 80z"/></svg>
